X: 2732
T: Banks Of Newfoundland, The
R: jig
M: 6/8
K: Gmajor
BAG AGE|GBd ~g3|ded BGA|BAA Adc|
BAG AGE|GBd ~g3|ded BGA|1 BGG Gdc:|2 BGG GBc||
dgg ged|eaa aga|bge dBG|BAG ABc|
dgg ged|eaa aga|bge dBG|AGE GBc|
dgg ged|eaa aga|bge dBG|BAG Adc|
BAG AGE|GBd ~g3|ded BGA|BGG Gdc:|

